assets/offering/underkonstruktion-grey.svg

<?xml version="1.0" encoding="UTF-8"?>
<svg width="48px" height="48px" viewBox="0 0 48 48" version="1.1" xmlns="http://www.w3.org/2000/svg" xmlns:xlink="http://www.w3.org/1999/xlink">
    <!-- Generator: Sketch 60.1 (88133) - https://sketch.com -->
    <title>underkonstruktion</title>
    <desc>Created with Sketch.</desc>
    <g id="Page-1" stroke="none" stroke-width="1" fill="none" fill-rule="evenodd">
        <g id="underkonstruktion">
            <g id="Page-1" fill="#FFDCDA" fill-rule="nonzero">
                <g id="Group-3">
                    <path d="M48,24 C48,37.255 37.255,48 24,48 C10.745,48 0,37.255 0,24 C0,10.745 10.745,0 24,0 C37.255,0 48,10.745 48,24" id="Fill-1"></path>
                </g>
            </g>
            <g id="Group" transform="translate(11.000000, 13.000000)">
                <line x1="18" y1="5" x2="23" y2="5" id="Path-6" stroke="#FFFFFF"></line>
                <line x1="26" y1="5" x2="28" y2="5" id="Path-6" stroke="#FFFFFF"></line>
                <rect id="Rectangle" fill="#FFFFFF" fill-rule="nonzero" x="24" y="0" width="1" height="10" rx="0.5"></rect>
                <line x1="9" y1="13" x2="12" y2="13" id="Path-6" stroke="#FFFFFF"></line>
                <path d="M15.5,8 L15.5,8 C17.1568542,8 18.5,6.65685425 18.5,5 C18.5,3.34314575 17.1568542,2 15.5,2" id="Path" stroke="#FFFFFF"></path>
                <rect id="Rectangle" fill="#FFFFFF" fill-rule="nonzero" x="21" y="12" width="2" height="2" rx="1"></rect>
                <rect id="Rectangle" fill="#FFFFFF" fill-rule="nonzero" x="20" y="15" width="2" height="2" rx="1"></rect>
                <rect id="Rectangle" fill="#FFFFFF" fill-rule="nonzero" x="21" y="18" width="2" height="2" rx="1"></rect>
                <rect id="Rectangle" fill="#FFFFFF" fill-rule="nonzero" transform="translate(5.000000, 6.500000) rotate(90.000000) translate(-5.000000, -6.500000) " x="4.5" y="4.5" width="1" height="4" rx="0.5"></rect>
                <rect id="Rectangle" fill="#FFFFFF" fill-rule="nonzero" transform="translate(5.000000, 3.500000) rotate(90.000000) translate(-5.000000, -3.500000) " x="4.5" y="1.5" width="1" height="4" rx="0.5"></rect>
                <polygon id="Rectangle" stroke="#FFFFFF" points="5.25 9.5 10 9.5 7.75 17.5 3 17.5"></polygon>
                <path d="M15.5783287,9.5 L1.73265016,9.5 C1.12495692,9.5 0.632324219,8.99632034 0.632324219,8.375 L0.632324219,1.625 C0.632324219,1.00367966 1.12495692,0.5 1.73265016,0.5 L15.6323242,0.5 L15.5783287,9.5 Z" id="Path" stroke="#FFFFFF"></path>
                <rect id="Rectangle" stroke="#FFFFFF" x="0" y="17.5" width="11" height="4" rx="1"></rect>
            </g>
        </g>
    </g>
</svg>

<svg width="48" height="48" viewBox="0 0 48 48" xmlns="http://www.w3.org/2000/svg"><g fill="none" fill-rule="evenodd"><path d="M48 24c0 13.255-10.745 24-24 24S0 37.255 0 24 10.745 0 24 0s24 10.745 24 24" fill="#FFDCDA" fill-rule="nonzero"/><g transform="translate(11 13)"><path stroke="#FFF" d="M18 5h5M26 5h2"/><rect fill="#FFF" fill-rule="nonzero" x="24" width="1" height="10" rx=".5"/><path stroke="#FFF" d="M9 13h3M15.5 8h0a3 3 0 000-6"/><rect fill="#FFF" fill-rule="nonzero" x="21" y="12" width="2" height="2" rx="1"/><rect fill="#FFF" fill-rule="nonzero" x="20" y="15" width="2" height="2" rx="1"/><rect fill="#FFF" fill-rule="nonzero" x="21" y="18" width="2" height="2" rx="1"/><rect fill="#FFF" fill-rule="nonzero" transform="rotate(90 5 6.5)" x="4.5" y="4.5" width="1" height="4" rx=".5"/><rect fill="#FFF" fill-rule="nonzero" transform="rotate(90 5 3.5)" x="4.5" y="1.5" width="1" height="4" rx=".5"/><path stroke="#FFF" d="M5.25 9.5H10l-2.25 8H3zM15.578 9.5H1.733c-.608 0-1.1-.504-1.1-1.125v-6.75c0-.621.492-1.125 1.1-1.125h13.9l-.055 9z"/><rect stroke="#FFF" y="17.5" width="11" height="4" rx="1"/></g></g></svg>
